dist/img/home/about/2.svg

<svg width="30" height="25" viewBox="0 0 30 25" fill="none" xmlns="http://www.w3.org/2000/svg">
<path d="M10.4765 15.0826H5.94059C5.61703 15.0826 5.35465 15.3449 5.35465 15.6685C5.35465 15.9921 5.61703 16.2544 5.94059 16.2544H10.4765C10.8001 16.2544 11.0624 15.9921 11.0624 15.6685C11.0624 15.3449 10.8001 15.0826 10.4765 15.0826Z" fill="#E0191C"/>
<path d="M9.05619 18.2298H5.94059C5.61703 18.2298 5.35465 18.4921 5.35465 18.8157C5.35465 19.1394 5.61703 19.4017 5.94059 19.4017H9.05619C9.3798 19.4017 9.64213 19.1394 9.64213 18.8157C9.64213 18.4921 9.37975 18.2298 9.05619 18.2298Z" fill="#E0191C"/>
<path d="M24.4046 8.28574V6.42404H24.6255C24.9491 6.42404 25.2114 6.16172 25.2114 5.83811V0.585938C25.2114 0.262324 24.9491 0 24.6255 0H0.585938C0.262324 0 0 0.262324 0 0.585938V5.83811C0 6.16172 0.262324 6.42404 0.585938 6.42404H0.806895V22.3674C0.806895 23.3986 1.6415 24.2375 2.66742 24.2375H22.544C23.5699 24.2375 24.4046 23.3986 24.4046 22.3674V20.7329C27.5402 20.4283 30 17.7534 30 14.5093C30 11.2653 27.5402 8.59037 24.4046 8.28574ZM16.2156 1.17187H24.0396V5.25217H16.2156V1.17187ZM10.1677 1.17187H15.0438V9.03832L12.8121 8.19832C12.7456 8.1733 12.6756 8.16076 12.6057 8.16076C12.5358 8.16076 12.4658 8.1733 12.3993 8.19832L10.1677 9.03832V1.17187ZM1.17188 5.25217V1.17187H8.99584V5.25217H1.17188ZM23.2327 22.3674C23.2327 22.7524 22.9237 23.0657 22.544 23.0657H2.66742C2.28773 23.0657 1.97877 22.7524 1.97877 22.3674V6.42404H8.99584V9.88494C8.99584 10.0772 9.09018 10.2573 9.24838 10.3668C9.3477 10.4355 9.4643 10.4709 9.58184 10.4709C9.65133 10.4709 9.72129 10.4585 9.78814 10.4333L12.6057 9.37277L15.4233 10.4333C15.6032 10.5011 15.805 10.4762 15.9631 10.3668C16.1213 10.2573 16.2156 10.0773 16.2156 9.88494V6.42404H23.2327V8.28351C20.0857 8.57684 17.6133 11.2571 17.6133 14.5094C17.6133 17.7616 20.0858 20.4419 23.2327 20.7352V22.3674ZM23.8067 19.5899C21.0379 19.5899 18.7852 17.3108 18.7852 14.5093C18.7852 11.7079 21.0379 9.42873 23.8067 9.42873C26.5755 9.42873 28.8281 11.7079 28.8281 14.5093C28.8281 17.3108 26.5755 19.5899 23.8067 19.5899Z" fill="#E0191C"/>
<path d="M25.7773 12.536C25.529 12.3285 25.1595 12.3615 24.952 12.61L23.3374 14.5425L22.7774 13.9803C22.549 13.751 22.178 13.7504 21.9487 13.9787C21.7194 14.2071 21.7187 14.5781 21.9471 14.8073L22.9603 15.8244C23.0705 15.935 23.2199 15.9967 23.3753 15.9967C23.3838 15.9967 23.3924 15.9966 23.401 15.9962C23.5655 15.9889 23.7195 15.9128 23.825 15.7864L25.8512 13.3612C26.0588 13.113 26.0256 12.7434 25.7773 12.536Z" fill="#E0191C"/>
</svg>

<svg width="30" height="25" viewBox="0 0 30 25" fill="none" xmlns="http://www.w3.org/2000/svg"><path d="M10.476 15.083H5.941a.586.586 0 100 1.171h4.535a.586.586 0 100-1.171zm-1.42 3.147H5.941a.586.586 0 100 1.172h3.115a.586.586 0 100-1.172z" fill="#E0191C"/><path d="M24.405 8.286V6.424h.22a.586.586 0 00.586-.586V.586A.586.586 0 0024.626 0H.585A.586.586 0 000 .586v5.252c0 .324.262.586.586.586h.22v15.943c0 1.032.835 1.87 1.861 1.87h19.877c1.026 0 1.86-.838 1.86-1.87v-1.634C27.54 20.428 30 17.753 30 14.509s-2.46-5.919-5.595-6.223zm-8.19-7.114h7.825v4.08h-7.824v-4.08zm-6.047 0h4.876v7.866l-2.232-.84a.586.586 0 00-.413 0l-2.231.84V1.172zm-8.996 4.08v-4.08h7.824v4.08H1.172zm22.06 17.115a.694.694 0 01-.688.699H2.667a.694.694 0 01-.688-.699V6.424h7.017v3.46a.586.586 0 00.792.55l2.818-1.061 2.817 1.06a.586.586 0 00.793-.548V6.424h7.017v1.86c-3.147.293-5.62 2.973-5.62 6.225 0 3.253 2.473 5.933 5.62 6.226v1.632zm.575-2.777c-2.77 0-5.022-2.28-5.022-5.08 0-2.802 2.253-5.081 5.022-5.081s5.021 2.279 5.021 5.08c0 2.802-2.252 5.08-5.021 5.08z" fill="#E0191C"/><path d="M25.777 12.536a.586.586 0 00-.825.074l-1.615 1.933-.56-.563a.586.586 0 00-.83.827l1.013 1.017a.586.586 0 00.865-.038l2.026-2.425a.586.586 0 00-.074-.825z" fill="#E0191C"/></svg>
